report_00007_2020-12-11T15:55:29.892Z/largest-contentful-paint/comparison/line/12_vs_13.svg

<svg width="640" height="500" xmlns="http://www.w3.org/2000/svg" xmlns:xlink="http://www.w3.org/1999/xlink"><path fill="#fff" d="M0 0h640v500H0z"/><defs><path id="d" stroke-width=".222" stroke="currentColor" d="M-1-1h2v2h-2z"/><path id="b" stroke-width=".222" stroke="currentColor" d="M0-1.33l-1.33 2h2.66z"/><path id="f" stroke-width=".222" stroke="currentColor" d="M0 1.33L1.265.411.782-1.067l-1.564-.009-.483 1.487z"/><use xlink:href="#b" id="c" stroke="currentColor" transform="rotate(180)"/><use xlink:href="#d" id="e" stroke="currentColor" transform="rotate(45)"/><circle id="a" stroke-width=".222" stroke="currentColor" cx="0" cy="0" r="1"/></defs><g fill="none" color="#000" stroke="currentColor"><path stroke="#000" d="M62.2 359.1h9m543.8 0h-9"/><text transform="translate(53.9 363)" stroke="none" fill="#000" font-family="Arial" font-size="12" text-anchor="end"><tspan>1600</tspan></text></g><g fill="none" color="#000" stroke="currentColor"><path stroke="#000" d="M62.2 303.8h9m543.8 0h-9"/><text transform="translate(53.9 307.7)" stroke="none" fill="#000" font-family="Arial" font-size="12" text-anchor="end"><tspan>1800</tspan></text></g><g fill="none" color="#000" stroke="currentColor"><path stroke="#000" d="M62.2 248.4h9m543.8 0h-9"/><text transform="translate(53.9 252.3)" stroke="none" fill="#000" font-family="Arial" font-size="12" text-anchor="end"><tspan>2000</tspan></text></g><g fill="none" color="#000" stroke="currentColor"><path stroke="#000" d="M62.2 193.1h9m543.8 0h-9"/><text transform="translate(53.9 197)" stroke="none" fill="#000" font-family="Arial" font-size="12" text-anchor="end"><tspan>2200</tspan></text></g><g fill="none" color="#000" stroke="currentColor"><path stroke="#000" d="M62.2 137.8h9m543.8 0h-9"/><text transform="translate(53.9 141.7)" stroke="none" fill="#000" font-family="Arial" font-size="12" text-anchor="end"><tspan>2400</tspan></text></g><g fill="none" color="#000" stroke="currentColor"><path stroke="#000" d="M62.2 82.5h9m543.8 0h-9"/><text transform="translate(53.9 86.4)" stroke="none" fill="#000" font-family="Arial" font-size="12" text-anchor="end"><tspan>2600</tspan></text></g><g fill="none" color="#000" stroke="currentColor"><path stroke="#000" d="M62.2 27.2h9m543.8 0h-9"/><text transform="translate(53.9 31.1)" stroke="none" fill="#000" font-family="Arial" font-size="12" text-anchor="end"><tspan>2800</tspan></text></g><g fill="none" color="#000" stroke="currentColor"><path stroke="#000" d="M62.2 392v-9m0-364.9v9"/><text transform="translate(62.2 413.9)" stroke="none" fill="#000" font-family="Arial" font-size="12" text-anchor="middle"><tspan>0</tspan></text></g><g fill="none" color="#000" stroke="currentColor"><path stroke="#000" d="M118 392v-9m0-364.9v9"/><text transform="translate(118 413.9)" stroke="none" fill="#000" font-family="Arial" font-size="12" text-anchor="middle"><tspan>10</tspan></text></g><g fill="none" color="#000" stroke="currentColor"><path stroke="#000" d="M173.9 392v-9m0-364.9v9"/><text transform="translate(173.9 413.9)" stroke="none" fill="#000" font-family="Arial" font-size="12" text-anchor="middle"><tspan>20</tspan></text></g><g fill="none" color="#000" stroke="currentColor"><path stroke="#000" d="M229.7 392v-9m0-364.9v9"/><text transform="translate(229.7 413.9)" stroke="none" fill="#000" font-family="Arial" font-size="12" text-anchor="middle"><tspan>30</tspan></text></g><g fill="none" color="#000" stroke="currentColor"><path stroke="#000" d="M285.6 392v-9m0-364.9v9"/><text transform="translate(285.6 413.9)" stroke="none" fill="#000" font-family="Arial" font-size="12" text-anchor="middle"><tspan>40</tspan></text></g><g fill="none" color="#000" stroke="currentColor"><path stroke="#000" d="M341.4 392v-9m0-364.9v9"/><text transform="translate(341.4 413.9)" stroke="none" fill="#000" font-family="Arial" font-size="12" text-anchor="middle"><tspan>50</tspan></text></g><g fill="none" color="#000" stroke="currentColor"><path stroke="#000" d="M397.2 392v-9m0-364.9v9"/><text transform="translate(397.2 413.9)" stroke="none" fill="#000" font-family="Arial" font-size="12" text-anchor="middle"><tspan>60</tspan></text></g><g fill="none" color="#000" stroke="currentColor"><path stroke="#000" d="M453.1 392v-9m0-364.9v9"/><text transform="translate(453.1 413.9)" stroke="none" fill="#000" font-family="Arial" font-size="12" text-anchor="middle"><tspan>70</tspan></text></g><g fill="none" color="#000" stroke="currentColor"><path stroke="#000" d="M508.9 392v-9m0-364.9v9"/><text transform="translate(508.9 413.9)" stroke="none" fill="#000" font-family="Arial" font-size="12" text-anchor="middle"><tspan>80</tspan></text></g><g fill="none" color="#000" stroke="currentColor"><path stroke="#000" d="M564.7 392v-9m0-364.9v9"/><text transform="translate(564.7 413.9)" stroke="none" fill="#000" font-family="Arial" font-size="12" text-anchor="middle"><tspan>90</tspan></text></g><path stroke="#000" d="M62.2 18.1V392H615V18.1H62.2z" fill="none" color="#000"/><text transform="translate(533.3 431.9)" stroke="none" fill="#000" font-family="Arial" font-size="12" text-anchor="end" color="#000"><tspan>pages+cached+noexternal+nofonts+nosvg+noimg+nocss</tspan></text><path stroke="#9400D3" d="M541.6 428h42.2M62.2 47l5.6-.8 5.6 1.2 5.6-2.8 5.5.1 5.6 2.4 5.6-1.1 5.6-.7 5.6.7 5.6-.5 5.5 1.2 5.6.7 5.6-4.8 5.6 3.2 5.6-.2 5.6 1.5 5.5-.5 5.6-5.3 5.6 5.4 5.6-1.4 5.6 3.3 5.6-23.3 5.5 19.3 5.6 3.1 5.6.1 5.6-2.3 5.6.2 5.6-.7 5.5 1.7 5.6-.4 5.6 1.2 5.6-.4 5.6-3.1 5.6 2.1 5.6-1.6 5.5 1 5.6 1 5.6-1.8 5.6 2.5 5.6-2.1 5.6 1.6 5.5-.4 5.6 2 5.6-22.7 5.6 20.3 5.6-.1 5.6.5 5.5-.1 5.6-18.8 5.6 17.7 5.6 1.6 5.6-.4 5.6.1 5.5.5 5.6-2.2 5.6 3.7 5.6-1 5.6-.2 5.6-.5 5.5-.9 5.6-1.2 5.6 2.5 5.6.7 5.6-22 5.6 19.9 5.5 1.2 5.6-2.6 5.6 3.2 5.6-1.8 5.6 1.3 5.6.2 5.6-3.3 5.5 2.9 5.6.8 5.6-5.5 5.6 3.3 5.6 2 5.6-.7 5.5.2 5.6-3.1 5.6 2.9 5.6-1.2 5.6 1 5.6.3 5.5-1.6 5.6-.5 5.6 2.1 5.6-.2 5.6-1.6 5.6 1.1 5.5.7 5.6-1.4 5.6 1.4 5.6 1 5.6-1.2 5.6.7 5.5-1 5.6-.7 5.6 2.2 5.6-1.7" fill="none" color="#000"/><text transform="translate(533.3 449.9)" stroke="none" fill="#000" font-family="Arial" font-size="12" text-anchor="end" color="#000"><tspan>pages+cached+noexternal+nofonts+nosvg+noimg+nocss+nojs</tspan></text><path stroke="#009E73" d="M541.6 446h42.2M62.2 384.1l5.6.5 5.6-.3 5.6.5 5.5-.7 5.6.5 5.6-.4 5.6.5 5.6-.6 5.6.1 5.5-.1 5.6-.2 5.6.8 5.6-.5 5.6.2 5.6-.2h5.5l5.6-.1 5.6.3 5.6-.1 5.6-.3 5.6.6 5.5-.3h5.6l5.6-.2 5.6.1 5.6-.2 5.6.1 5.5.2 5.6-.2h5.6l5.6.4 5.6-.4 5.6.2 5.6.1 5.5-.4 5.6.5 5.6-.3 5.6.1 5.6.3h5.6l5.5-.6 5.6.5 5.6-.1 5.6.4 5.6-.7h5.6l5.5-.1 5.6-.1 5.6.1 5.6.4 5.6-.1 5.6-.1 5.5.1 5.6-.1 5.6.2 5.6-.3 5.6-.1h5.6l5.5.1 5.6.2 5.6-.1 5.6-.2 5.6.3 5.6.2h5.5l5.6-.2h5.6l5.6-.2 5.6.6 5.6-.4h5.6l5.5-.1 5.6.1 5.6-.1 5.6-.1h5.6l5.6.1 5.5.1 5.6-.2 5.6.3 5.6-.5 5.6.8 5.6-.8 5.5.6 5.6-.3 5.6.1 5.6.2 5.6-.4 5.6.1 5.5.1h5.6l5.6-.2h5.6l5.6.6 5.6-.1 5.5-.3 5.6.1 5.6-.5 5.6.9" fill="none" color="#000"/><text transform="translate(533.3 467.9)" stroke="none" fill="#000" font-family="Arial" font-size="12" text-anchor="end" color="#000"><tspan>score p10=2500</tspan></text><path stroke="#56B4E9" d="M541.6 464h42.2M62.2 110.1H615" fill="none" color="#000"/><g><text transform="translate(533.3 485.9)" stroke="none" fill="#000" font-family="Arial" font-size="12" text-anchor="end" color="#000"><tspan>score median=4000</tspan></text><path stroke="#E69F00" d="M541.6 482h42.2" fill="none" color="#000"/></g><g fill="none" color="#000" stroke="currentColor"><path stroke="#000" d="M62.2 18.1V392H615V18.1H62.2z"/></g></svg>

<?xml version="1.0" encoding="utf-8"  standalone="no"?>
<svg 
 width="640" height="500"
 viewBox="0 0 640 500"
 xmlns="http://www.w3.org/2000/svg"
 xmlns:xlink="http://www.w3.org/1999/xlink"
>

<title>Gnuplot</title>
<desc>Produced by GNUPLOT 5.4 patchlevel 0 </desc>

<g id="gnuplot_canvas">

<rect x="0" y="0" width="640" height="500" fill="#ffffff"/>
<defs>

	<circle id='gpDot' r='0.5' stroke-width='0.5' stroke='currentColor'/>
	<path id='gpPt0' stroke-width='0.222' stroke='currentColor' d='M-1,0 h2 M0,-1 v2'/>
	<path id='gpPt1' stroke-width='0.222' stroke='currentColor' d='M-1,-1 L1,1 M1,-1 L-1,1'/>
	<path id='gpPt2' stroke-width='0.222' stroke='currentColor' d='M-1,0 L1,0 M0,-1 L0,1 M-1,-1 L1,1 M-1,1 L1,-1'/>
	<rect id='gpPt3' stroke-width='0.222' stroke='currentColor' x='-1' y='-1' width='2' height='2'/>
	<rect id='gpPt4' stroke-width='0.222' stroke='currentColor' fill='currentColor' x='-1' y='-1' width='2' height='2'/>
	<circle id='gpPt5' stroke-width='0.222' stroke='currentColor' cx='0' cy='0' r='1'/>
	<use xlink:href='#gpPt5' id='gpPt6' fill='currentColor' stroke='none'/>
	<path id='gpPt7' stroke-width='0.222' stroke='currentColor' d='M0,-1.33 L-1.33,0.67 L1.33,0.67 z'/>
	<use xlink:href='#gpPt7' id='gpPt8' fill='currentColor' stroke='none'/>
	<use xlink:href='#gpPt7' id='gpPt9' stroke='currentColor' transform='rotate(180)'/>
	<use xlink:href='#gpPt9' id='gpPt10' fill='currentColor' stroke='none'/>
	<use xlink:href='#gpPt3' id='gpPt11' stroke='currentColor' transform='rotate(45)'/>
	<use xlink:href='#gpPt11' id='gpPt12' fill='currentColor' stroke='none'/>
	<path id='gpPt13' stroke-width='0.222' stroke='currentColor' d='M0,1.330 L1.265,0.411 L0.782,-1.067 L-0.782,-1.076 L-1.265,0.411 z'/>
	<use xlink:href='#gpPt13' id='gpPt14' fill='currentColor' stroke='none'/>
	<filter id='textbox' filterUnits='objectBoundingBox' x='0' y='0' height='1' width='1'>
	  <feFlood flood-color='#FFFFFF' flood-opacity='1' result='bgnd'/>
	  <feComposite in='SourceGraphic' in2='bgnd' operator='atop'/>
	</filter>
	<filter id='greybox' filterUnits='objectBoundingBox' x='0' y='0' height='1' width='1'>
	  <feFlood flood-color='lightgrey' flood-opacity='1' result='grey'/>
	  <feComposite in='SourceGraphic' in2='grey' operator='atop'/>
	</filter>
</defs>
<g fill="none" color="#FFFFFF" stroke="black" stroke-width="1.00" stroke-linecap="butt" stroke-linejoin="miter">
</g>
<g fill="none" color="black" stroke="currentColor" stroke-width="1.00" stroke-linecap="butt" stroke-linejoin="miter">
	<path stroke='black'  d='M62.2,359.1 L71.2,359.1 M615.0,359.1 L606.0,359.1  '/>	<g transform="translate(53.9,363.0)" stroke="none" fill="black" font-family="Arial" font-size="12.00"  text-anchor="end">
		<text><tspan font-family="Arial" > 1600</tspan></text>
	</g>
</g>
<g fill="none" color="black" stroke="currentColor" stroke-width="1.00" stroke-linecap="butt" stroke-linejoin="miter">
	<path stroke='black'  d='M62.2,303.8 L71.2,303.8 M615.0,303.8 L606.0,303.8  '/>	<g transform="translate(53.9,307.7)" stroke="none" fill="black" font-family="Arial" font-size="12.00"  text-anchor="end">
		<text><tspan font-family="Arial" > 1800</tspan></text>
	</g>
</g>
<g fill="none" color="black" stroke="currentColor" stroke-width="1.00" stroke-linecap="butt" stroke-linejoin="miter">
	<path stroke='black'  d='M62.2,248.4 L71.2,248.4 M615.0,248.4 L606.0,248.4  '/>	<g transform="translate(53.9,252.3)" stroke="none" fill="black" font-family="Arial" font-size="12.00"  text-anchor="end">
		<text><tspan font-family="Arial" > 2000</tspan></text>
	</g>
</g>
<g fill="none" color="black" stroke="currentColor" stroke-width="1.00" stroke-linecap="butt" stroke-linejoin="miter">
	<path stroke='black'  d='M62.2,193.1 L71.2,193.1 M615.0,193.1 L606.0,193.1  '/>	<g transform="translate(53.9,197.0)" stroke="none" fill="black" font-family="Arial" font-size="12.00"  text-anchor="end">
		<text><tspan font-family="Arial" > 2200</tspan></text>
	</g>
</g>
<g fill="none" color="black" stroke="currentColor" stroke-width="1.00" stroke-linecap="butt" stroke-linejoin="miter">
	<path stroke='black'  d='M62.2,137.8 L71.2,137.8 M615.0,137.8 L606.0,137.8  '/>	<g transform="translate(53.9,141.7)" stroke="none" fill="black" font-family="Arial" font-size="12.00"  text-anchor="end">
		<text><tspan font-family="Arial" > 2400</tspan></text>
	</g>
</g>
<g fill="none" color="black" stroke="currentColor" stroke-width="1.00" stroke-linecap="butt" stroke-linejoin="miter">
	<path stroke='black'  d='M62.2,82.5 L71.2,82.5 M615.0,82.5 L606.0,82.5  '/>	<g transform="translate(53.9,86.4)" stroke="none" fill="black" font-family="Arial" font-size="12.00"  text-anchor="end">
		<text><tspan font-family="Arial" > 2600</tspan></text>
	</g>
</g>
<g fill="none" color="black" stroke="currentColor" stroke-width="1.00" stroke-linecap="butt" stroke-linejoin="miter">
	<path stroke='black'  d='M62.2,27.2 L71.2,27.2 M615.0,27.2 L606.0,27.2  '/>	<g transform="translate(53.9,31.1)" stroke="none" fill="black" font-family="Arial" font-size="12.00"  text-anchor="end">
		<text><tspan font-family="Arial" > 2800</tspan></text>
	</g>
</g>
<g fill="none" color="black" stroke="currentColor" stroke-width="1.00" stroke-linecap="butt" stroke-linejoin="miter">
	<path stroke='black'  d='M62.2,392.0 L62.2,383.0 M62.2,18.1 L62.2,27.1  '/>	<g transform="translate(62.2,413.9)" stroke="none" fill="black" font-family="Arial" font-size="12.00"  text-anchor="middle">
		<text><tspan font-family="Arial" > 0</tspan></text>
	</g>
</g>
<g fill="none" color="black" stroke="currentColor" stroke-width="1.00" stroke-linecap="butt" stroke-linejoin="miter">
	<path stroke='black'  d='M118.0,392.0 L118.0,383.0 M118.0,18.1 L118.0,27.1  '/>	<g transform="translate(118.0,413.9)" stroke="none" fill="black" font-family="Arial" font-size="12.00"  text-anchor="middle">
		<text><tspan font-family="Arial" > 10</tspan></text>
	</g>
</g>
<g fill="none" color="black" stroke="currentColor" stroke-width="1.00" stroke-linecap="butt" stroke-linejoin="miter">
	<path stroke='black'  d='M173.9,392.0 L173.9,383.0 M173.9,18.1 L173.9,27.1  '/>	<g transform="translate(173.9,413.9)" stroke="none" fill="black" font-family="Arial" font-size="12.00"  text-anchor="middle">
		<text><tspan font-family="Arial" > 20</tspan></text>
	</g>
</g>
<g fill="none" color="black" stroke="currentColor" stroke-width="1.00" stroke-linecap="butt" stroke-linejoin="miter">
	<path stroke='black'  d='M229.7,392.0 L229.7,383.0 M229.7,18.1 L229.7,27.1  '/>	<g transform="translate(229.7,413.9)" stroke="none" fill="black" font-family="Arial" font-size="12.00"  text-anchor="middle">
		<text><tspan font-family="Arial" > 30</tspan></text>
	</g>
</g>
<g fill="none" color="black" stroke="currentColor" stroke-width="1.00" stroke-linecap="butt" stroke-linejoin="miter">
	<path stroke='black'  d='M285.6,392.0 L285.6,383.0 M285.6,18.1 L285.6,27.1  '/>	<g transform="translate(285.6,413.9)" stroke="none" fill="black" font-family="Arial" font-size="12.00"  text-anchor="middle">
		<text><tspan font-family="Arial" > 40</tspan></text>
	</g>
</g>
<g fill="none" color="black" stroke="currentColor" stroke-width="1.00" stroke-linecap="butt" stroke-linejoin="miter">
	<path stroke='black'  d='M341.4,392.0 L341.4,383.0 M341.4,18.1 L341.4,27.1  '/>	<g transform="translate(341.4,413.9)" stroke="none" fill="black" font-family="Arial" font-size="12.00"  text-anchor="middle">
		<text><tspan font-family="Arial" > 50</tspan></text>
	</g>
</g>
<g fill="none" color="black" stroke="currentColor" stroke-width="1.00" stroke-linecap="butt" stroke-linejoin="miter">
	<path stroke='black'  d='M397.2,392.0 L397.2,383.0 M397.2,18.1 L397.2,27.1  '/>	<g transform="translate(397.2,413.9)" stroke="none" fill="black" font-family="Arial" font-size="12.00"  text-anchor="middle">
		<text><tspan font-family="Arial" > 60</tspan></text>
	</g>
</g>
<g fill="none" color="black" stroke="currentColor" stroke-width="1.00" stroke-linecap="butt" stroke-linejoin="miter">
	<path stroke='black'  d='M453.1,392.0 L453.1,383.0 M453.1,18.1 L453.1,27.1  '/>	<g transform="translate(453.1,413.9)" stroke="none" fill="black" font-family="Arial" font-size="12.00"  text-anchor="middle">
		<text><tspan font-family="Arial" > 70</tspan></text>
	</g>
</g>
<g fill="none" color="black" stroke="currentColor" stroke-width="1.00" stroke-linecap="butt" stroke-linejoin="miter">
	<path stroke='black'  d='M508.9,392.0 L508.9,383.0 M508.9,18.1 L508.9,27.1  '/>	<g transform="translate(508.9,413.9)" stroke="none" fill="black" font-family="Arial" font-size="12.00"  text-anchor="middle">
		<text><tspan font-family="Arial" > 80</tspan></text>
	</g>
</g>
<g fill="none" color="black" stroke="currentColor" stroke-width="1.00" stroke-linecap="butt" stroke-linejoin="miter">
	<path stroke='black'  d='M564.7,392.0 L564.7,383.0 M564.7,18.1 L564.7,27.1  '/>	<g transform="translate(564.7,413.9)" stroke="none" fill="black" font-family="Arial" font-size="12.00"  text-anchor="middle">
		<text><tspan font-family="Arial" > 90</tspan></text>
	</g>
</g>
<g fill="none" color="black" stroke="currentColor" stroke-width="1.00" stroke-linecap="butt" stroke-linejoin="miter">
</g>
<g fill="none" color="black" stroke="currentColor" stroke-width="1.00" stroke-linecap="butt" stroke-linejoin="miter">
	<path stroke='black'  d='M62.2,18.1 L62.2,392.0 L615.0,392.0 L615.0,18.1 L62.2,18.1 Z  '/></g>
<g fill="none" color="black" stroke="currentColor" stroke-width="1.00" stroke-linecap="butt" stroke-linejoin="miter">
</g>
	<g id="gnuplot_plot_1" ><title>pages+cached+noexternal+nofonts+nosvg+noimg+nocss</title>
<g fill="none" color="black" stroke="currentColor" stroke-width="1.00" stroke-linecap="butt" stroke-linejoin="miter">
	<g transform="translate(533.3,431.9)" stroke="none" fill="black" font-family="Arial" font-size="12.00"  text-anchor="end">
		<text><tspan font-family="Arial" >pages+cached+noexternal+nofonts+nosvg+noimg+nocss</tspan></text>
	</g>
</g>
<g fill="none" color="black" stroke="currentColor" stroke-width="1.00" stroke-linecap="butt" stroke-linejoin="miter">
	<path stroke='rgb(148,   0, 211)'  d='M541.6,428.0 L583.8,428.0 M62.2,47.0 L67.8,46.2 L73.4,47.4 L79.0,44.6 L84.5,44.7 L90.1,47.1
		L95.7,46.0 L101.3,45.3 L106.9,46.0 L112.5,45.5 L118.0,46.7 L123.6,47.4 L129.2,42.6 L134.8,45.8
		L140.4,45.6 L146.0,47.1 L151.5,46.6 L157.1,41.3 L162.7,46.7 L168.3,45.3 L173.9,48.6 L179.5,25.3
		L185.0,44.6 L190.6,47.7 L196.2,47.8 L201.8,45.5 L207.4,45.7 L213.0,45.0 L218.5,46.7 L224.1,46.3
		L229.7,47.5 L235.3,47.1 L240.9,44.0 L246.5,46.1 L252.1,44.5 L257.6,45.5 L263.2,46.5 L268.8,44.7
		L274.4,47.2 L280.0,45.1 L285.6,46.7 L291.1,46.3 L296.7,48.3 L302.3,25.6 L307.9,45.9 L313.5,45.8
		L319.1,46.3 L324.6,46.2 L330.2,27.4 L335.8,45.1 L341.4,46.7 L347.0,46.3 L352.6,46.4 L358.1,46.9
		L363.7,44.7 L369.3,48.4 L374.9,47.4 L380.5,47.2 L386.1,46.7 L391.6,45.8 L397.2,44.6 L402.8,47.1
		L408.4,47.8 L414.0,25.8 L419.6,45.7 L425.1,46.9 L430.7,44.3 L436.3,47.5 L441.9,45.7 L447.5,47.0
		L453.1,47.2 L458.7,43.9 L464.2,46.8 L469.8,47.6 L475.4,42.1 L481.0,45.4 L486.6,47.4 L492.2,46.7
		L497.7,46.9 L503.3,43.8 L508.9,46.7 L514.5,45.5 L520.1,46.5 L525.7,46.8 L531.2,45.2 L536.8,44.7
		L542.4,46.8 L548.0,46.6 L553.6,45.0 L559.2,46.1 L564.7,46.8 L570.3,45.4 L575.9,46.8 L581.5,47.8
		L587.1,46.6 L592.7,47.3 L598.2,46.3 L603.8,45.6 L609.4,47.8 L615.0,46.1  '/></g>
	</g>
	<g id="gnuplot_plot_2" ><title>pages+cached+noexternal+nofonts+nosvg+noimg+nocss+nojs</title>
<g fill="none" color="black" stroke="currentColor" stroke-width="1.00" stroke-linecap="butt" stroke-linejoin="miter">
	<g transform="translate(533.3,449.9)" stroke="none" fill="black" font-family="Arial" font-size="12.00"  text-anchor="end">
		<text><tspan font-family="Arial" >pages+cached+noexternal+nofonts+nosvg+noimg+nocss+nojs</tspan></text>
	</g>
</g>
<g fill="none" color="black" stroke="currentColor" stroke-width="1.00" stroke-linecap="butt" stroke-linejoin="miter">
	<path stroke='rgb(  0, 158, 115)'  d='M541.6,446.0 L583.8,446.0 M62.2,384.1 L67.8,384.6 L73.4,384.3 L79.0,384.8 L84.5,384.1 L90.1,384.6
		L95.7,384.2 L101.3,384.7 L106.9,384.1 L112.5,384.2 L118.0,384.1 L123.6,383.9 L129.2,384.7 L134.8,384.2
		L140.4,384.4 L146.0,384.2 L151.5,384.2 L157.1,384.1 L162.7,384.4 L168.3,384.3 L173.9,384.0 L179.5,384.6
		L185.0,384.3 L190.6,384.3 L196.2,384.1 L201.8,384.2 L207.4,384.0 L213.0,384.1 L218.5,384.3 L224.1,384.1
		L229.7,384.1 L235.3,384.5 L240.9,384.1 L246.5,384.3 L252.1,384.4 L257.6,384.0 L263.2,384.5 L268.8,384.2
		L274.4,384.3 L280.0,384.6 L285.6,384.6 L291.1,384.0 L296.7,384.5 L302.3,384.4 L307.9,384.8 L313.5,384.1
		L319.1,384.1 L324.6,384.0 L330.2,383.9 L335.8,384.0 L341.4,384.4 L347.0,384.3 L352.6,384.2 L358.1,384.3
		L363.7,384.2 L369.3,384.4 L374.9,384.1 L380.5,384.0 L386.1,384.0 L391.6,384.1 L397.2,384.3 L402.8,384.2
		L408.4,384.0 L414.0,384.3 L419.6,384.5 L425.1,384.5 L430.7,384.3 L436.3,384.3 L441.9,384.1 L447.5,384.7
		L453.1,384.3 L458.7,384.3 L464.2,384.2 L469.8,384.3 L475.4,384.2 L481.0,384.1 L486.6,384.1 L492.2,384.2
		L497.7,384.3 L503.3,384.1 L508.9,384.4 L514.5,383.9 L520.1,384.7 L525.7,383.9 L531.2,384.5 L536.8,384.2
		L542.4,384.3 L548.0,384.5 L553.6,384.1 L559.2,384.2 L564.7,384.3 L570.3,384.3 L575.9,384.1 L581.5,384.1
		L587.1,384.7 L592.7,384.6 L598.2,384.3 L603.8,384.4 L609.4,383.9 L615.0,384.8  '/></g>
	</g>
	<g id="gnuplot_plot_3" ><title>score p10=2500</title>
<g fill="none" color="black" stroke="currentColor" stroke-width="1.00" stroke-linecap="butt" stroke-linejoin="miter">
	<g transform="translate(533.3,467.9)" stroke="none" fill="black" font-family="Arial" font-size="12.00"  text-anchor="end">
		<text><tspan font-family="Arial" >score p10=2500</tspan></text>
	</g>
</g>
<g fill="none" color="black" stroke="currentColor" stroke-width="1.00" stroke-linecap="butt" stroke-linejoin="miter">
	<path stroke='rgb( 86, 180, 233)'  d='M541.6,464.0 L583.8,464.0 M62.2,110.1 L67.8,110.1 L73.4,110.1 L79.0,110.1 L84.5,110.1 L90.1,110.1
		L95.7,110.1 L101.3,110.1 L106.9,110.1 L112.5,110.1 L118.0,110.1 L123.6,110.1 L129.2,110.1 L134.8,110.1
		L140.4,110.1 L146.0,110.1 L151.5,110.1 L157.1,110.1 L162.7,110.1 L168.3,110.1 L173.9,110.1 L179.5,110.1
		L185.0,110.1 L190.6,110.1 L196.2,110.1 L201.8,110.1 L207.4,110.1 L213.0,110.1 L218.5,110.1 L224.1,110.1
		L229.7,110.1 L235.3,110.1 L240.9,110.1 L246.5,110.1 L252.1,110.1 L257.6,110.1 L263.2,110.1 L268.8,110.1
		L274.4,110.1 L280.0,110.1 L285.6,110.1 L291.1,110.1 L296.7,110.1 L302.3,110.1 L307.9,110.1 L313.5,110.1
		L319.1,110.1 L324.6,110.1 L330.2,110.1 L335.8,110.1 L341.4,110.1 L347.0,110.1 L352.6,110.1 L358.1,110.1
		L363.7,110.1 L369.3,110.1 L374.9,110.1 L380.5,110.1 L386.1,110.1 L391.6,110.1 L397.2,110.1 L402.8,110.1
		L408.4,110.1 L414.0,110.1 L419.6,110.1 L425.1,110.1 L430.7,110.1 L436.3,110.1 L441.9,110.1 L447.5,110.1
		L453.1,110.1 L458.7,110.1 L464.2,110.1 L469.8,110.1 L475.4,110.1 L481.0,110.1 L486.6,110.1 L492.2,110.1
		L497.7,110.1 L503.3,110.1 L508.9,110.1 L514.5,110.1 L520.1,110.1 L525.7,110.1 L531.2,110.1 L536.8,110.1
		L542.4,110.1 L548.0,110.1 L553.6,110.1 L559.2,110.1 L564.7,110.1 L570.3,110.1 L575.9,110.1 L581.5,110.1
		L587.1,110.1 L592.7,110.1 L598.2,110.1 L603.8,110.1 L609.4,110.1 L615.0,110.1  '/></g>
	</g>
	<g id="gnuplot_plot_4" ><title>score median=4000</title>
<g fill="none" color="black" stroke="currentColor" stroke-width="1.00" stroke-linecap="butt" stroke-linejoin="miter">
	<g transform="translate(533.3,485.9)" stroke="none" fill="black" font-family="Arial" font-size="12.00"  text-anchor="end">
		<text><tspan font-family="Arial" >score median=4000</tspan></text>
	</g>
</g>
<g fill="none" color="black" stroke="currentColor" stroke-width="1.00" stroke-linecap="butt" stroke-linejoin="miter">
	<path stroke='rgb(230, 159,   0)'  d='M541.6,482.0 L583.8,482.0  '/></g>
	</g>
<g fill="none" color="#FFFFFF" stroke="rgb(230, 159,   0)" stroke-width="2.00" stroke-linecap="butt" stroke-linejoin="miter">
</g>
<g fill="none" color="black" stroke="currentColor" stroke-width="2.00" stroke-linecap="butt" stroke-linejoin="miter">
</g>
<g fill="none" color="black" stroke="black" stroke-width="1.00" stroke-linecap="butt" stroke-linejoin="miter">
</g>
<g fill="none" color="black" stroke="currentColor" stroke-width="1.00" stroke-linecap="butt" stroke-linejoin="miter">
	<path stroke='black'  d='M62.2,18.1 L62.2,392.0 L615.0,392.0 L615.0,18.1 L62.2,18.1 Z  '/></g>
<g fill="none" color="black" stroke="currentColor" stroke-width="1.00" stroke-linecap="butt" stroke-linejoin="miter">
</g>
</g>
</svg>
